src/lib/packages/icons/src/assets/filled/video.svg

<svg width="24" height="24" viewBox="0 0 24 24" fill="none" xmlns="http://www.w3.org/2000/svg">
<path d="M22 7.56006V16.4399C22 17.0719 21.2689 17.4221 20.7759 17.0271L18.6121 15.29C18.5411 15.233 18.5 15.1469 18.5 15.0559V8.94409C18.5 8.85309 18.5411 8.76696 18.6121 8.70996L20.7759 6.9729C21.2689 6.5779 22 6.92806 22 7.56006ZM17 16V8C17 6 16 5 14 5H5C3 5 2 6 2 8V16C2 18 3 19 5 19H14C16 19 17 18 17 16Z" fill="currentColor"/>
</svg>

<svg xmlns="http://www.w3.org/2000/svg" width="24" height="24" fill="none"><path fill="currentColor" d="M22 7.56v8.88a.753.753 0 0 1-1.224.587l-2.164-1.737a.3.3 0 0 1-.112-.234V8.944a.3.3 0 0 1 .112-.234l2.164-1.737A.753.753 0 0 1 22 7.56ZM17 16V8c0-2-1-3-3-3H5C3 5 2 6 2 8v8c0 2 1 3 3 3h9c2 0 3-1 3-3Z"/></svg>
